assets/images/unionpay_logo.svg

<svg fill="none" height="48" viewBox="0 0 70 48" width="70" xmlns="http://www.w3.org/2000/svg"><g fill="#3ab0e2"><path d="m21.6555 10.0015h11.0315c1.5399 0 2.4977 1.2552 2.1385 2.8002l-5.136 22.0507c-.3625 1.5397-1.9042 2.7959-3.4452 2.7959h-11.0305c-1.5378 0-2.4977-1.2562-2.1384-2.7959l5.1381-22.0507c.3592-1.545 1.9002-2.8002 3.442-2.8002z"/><path d="m31.7686 10h12.686c1.5396 0 .8453 1.2552.4832 2.8002l-5.1352 22.0507c-.3603 1.5396-.2479 2.7959-1.7908 2.7959h-12.686c-1.5429 0-2.4977-1.2563-2.1352-2.7959l5.1349-22.0507c.3646-1.545 1.9023-2.8002 3.4431-2.8002z"/><path d="m43.9516 10h11.0316c1.5421 0 2.4998 1.2552 2.1376 2.8002l-5.1351 22.0507c-.3625 1.5396-1.9054 2.7959-3.4471 2.7959h-11.0265c-1.5429 0-2.4998-1.2563-2.1384-2.7959l5.1359-22.0507c.3593-1.545 1.8992-2.8002 3.442-2.8002z"/></g><path d="m24.5361 17.0666c-1.1344.0115-1.4695 0-1.5765-.0253-.0411.1955-.8067 3.7268-.8088 3.7297-.1648.7144-.2848 1.2237-.6921 1.5526-.2313.1911-.5012.2834-.8142.2834-.5031 0-.7962-.2498-.8454-.7236l-.0094-.1627s.1533-.9569.1533-.9623c0 0 .8034-3.218.9473-3.6434.0075-.0242.0096-.0369.0115-.0484-1.5638.0137-1.841 0-1.8601-.0253-.0105.0347-.0492.2342-.0492.2342l-.8204 3.627-.0704.3076-.1364 1.0062c0 .2984.0586.542.1753.748.3738.6531 1.4399.751 2.043.751.7771 0 1.5061-.1651 1.9987-.4665.855-.5052 1.0787-1.295 1.2782-1.9968l.0925-.36s.8277-3.3422.9683-3.777c.0054-.0242.0075-.0369.0148-.0484zm2.8159 2.6962c-.1995 0-.5641.0484-.8916.2089-.1188.0611-.2312.1315-.3498.2017l.107-.3864-.0586-.0651c-.6945.1407-.85.1595-1.4915.2498l-.0538.0358c-.0745.6176-.1406 1.082-.4168 2.296-.1051.4474-.2143.8992-.3237 1.3455l.0296.0567c.6574-.0347.8569-.0347 1.4283-.0252l.0462-.0503c.0726-.3719.0821-.459.2428-1.2122.0756-.357.2332-1.1416.3109-1.421.1428-.0662.2836-.1312.4181-.1312.3202 0 .2812.2793.2689.3907-.0137.1868-.1304.7972-.2501 1.3213l-.0798.3382c-.0557.2498-.1167.4926-.1724.7403l.0242.0494c.648-.0347.8456-.0347 1.399-.0252l.0651-.0503c.1-.5808.1293-.7362.3068-1.5819l.0892-.3885c.1735-.7604.2606-1.146.1294-1.4601-.1388-.3519-.4716-.4369-.7774-.4369zm3.1458.7961c-.3445.0662-.5641.1103-.7825.1388-.2164.0347-.4275.0661-.7604.1124l-.0263.0239-.0242.0191c-.0347.2479-.0589.4622-.1049.7142-.039.2605-.099.5566-.1966.9819-.0755.3257-.1145.4391-.1575.5537-.042.1145-.0882.2258-.1732.5461l.0199.0296.0167.0271c.3111-.0148.5146-.0253.7238-.0271.2089-.0076.4254 0 .7604.0018l.0293-.0239.0315-.0263c.0484-.2888.0557-.3665.0852-.5074.0293-.1511.0799-.3603.2038-.9191.0587-.2624.124-.524.1848-.7919.0632-.2667.1293-.5294.1922-.7918l-.0094-.0317zm.0073-1.0734c-.313-.1847-.8623-.1261-1.232.1291-.3687.25-.4106.605-.0987.7921.3076.1796.8591.1261 1.2256-.1312.3678-.2555.4138-.6072.1051-.79zm1.8928 4.2781c.6333 0 1.2823-.1745 1.7709-.6924.3759-.42.5483-1.0449.608-1.3022.1944-.8529.043-1.2511-.1471-1.4936-.2888-.3698-.7991-.4883-1.3286-.4883-.3183 0-1.0766.0314-1.669.5775-.4253.3939-.6219.9285-.7405 1.441-.1196.5222-.2573 1.4622.6072 1.812.2667.1145.6512.146.8991.146zm-.0494-1.919c.146-.6459.3183-1.188.7582-1.188.3447 0 .3697.4034.2165 1.0514-.0275.1438-.1533.6786-.3235.9064-.1189.168-.2595.2699-.4149.2699-.0462 0-.3213 0-.3256-.4084-.0022-.2017.039-.4076.0893-.6313zm4.0112 1.8359.0495-.0502c.0701-.3719.0817-.4593.2371-1.2122.0777-.3571.2385-1.1417.3141-1.421.143-.0664.2815-.1315.4202-.1315.3181 0 .2794.2794.2668.3907-.0116.1871-.1283.7972-.2501 1.3213l-.0755.3382c-.0579.2501-.1208.4926-.1764.7405l.0242.0495c.6501-.0347.8402-.0347 1.3968-.0253l.0672-.0502c.0977-.5811.124-.7365.3068-1.5819l.0872-.3888c.1742-.7604.2624-1.1457.1333-1.4598-.1427-.3519-.4778-.4369-.7792-.4369-.1998 0-.5663.0481-.8919.2089-.1164.061-.2331.1312-.3477.2017l.0998-.3864-.0535-.0654c-.6943.1409-.8529.1598-1.4937.2501l-.0492.0358c-.0777.6176-.1409 1.0817-.417 2.296-.1051.4474-.2143.8991-.3235 1.3455l.0293.0567c.6585-.0347.8551-.0347 1.4254-.0253zm4.7769.0252c.0408-.1995.2836-1.3821.2858-1.3821 0 0 .2068-.8677.2194-.8991 0 0 .0651-.0904.1301-.1261h.0958c.9032 0 1.923 0 2.7224-.5881.544-.4033.9159-.9989 1.0818-1.7227.043-.1775.0747-.3886.0747-.5997 0-.2772-.0557-.5514-.2165-.7657-.4076-.5704-1.2193-.5808-2.1564-.5851-.003 0-.462.0043-.462.0043-1.1994.0148-1.6805.0104-1.8781-.0138-.0167.0874-.0481.2429-.0481.2429s-.4297 1.9913-.4297 1.9945c0 0-1.0282 4.2339-1.0766 4.4334 1.0473-.0126 1.4767-.0126 1.6574.0073zm.7961-3.5375s.4569-1.9873.4547-1.9798l.0148-.1019.0065-.0777.1825.0188s.9422.081.9643.0831c.3718.1439.5251.5147.4181.9987-.0976.4423-.3845.8141-.7532.9938-.3035.1521-.6754.1648-1.0586.1648h-.2479zm2.8444 1.7132c-.1207.5146-.2595 1.4546.6007 1.7897.2743.1167.52.1514.7698.1387.2638-.0142.5082-.1465.7346-.3369-.0204.0783-.0409.1565-.0613.235l.039.0503c.6187-.0261.8107-.0261 1.481-.021l.0608-.0462c.0979-.5754.1901-1.1342.4445-2.235.1239-.5273.2476-1.0495.3748-1.5746l-.0199-.0578c-.6921.1283-.8771.1557-1.5429.2501l-.0505.0411c-.0068.0535-.0137.1049-.0202.1562-.1035-.1672-.2536-.31-.4851-.399-.296-.1164-.9913.0336-1.5891.5778-.42.3886-.6216.921-.7362 1.4316zm1.4536.0314c.1482-.6343.3184-1.171.7593-1.171.2789 0 .4257.2574.3958.6962-.0236.1094-.0492.2248-.0796.3552-.0441.1885-.0919.3753-.1384.5625-.0474.128-.1025.2487-.163.3291-.1134.1608-.3834.2606-.5388.2606-.0441 0-.3162 0-.3256-.4012-.0022-.1998.0389-.4055.0903-.6314zm7.5908-2.0943-.0535-.0611c-.6849.1388-.8088.1608-1.438.2458l-.0463.0462c-.0021.0076-.004.0191-.0072.0296l-.0022-.0105c-.4684 1.0807-.4547.8476-.836 1.6983-.0021-.0387-.0021-.0629-.0043-.1041l-.0954-1.8442-.06-.0611c-.7174.1388-.7343.1608-1.3968.2458l-.0517.0462c-.0072.0221-.0072.0463-.0115.0726l.0043.0094c.0828.4233.0629.3289.146.9968.0387.3278.0903.6574.129.9812.0654.5418.102.8085.1818 1.6353-.4474.7384-.5534 1.0178-.9841 1.6658l.003.0064-.3034.4797c-.0346.0506-.0661.0852-.1102.1-.0484.024-.1113.0283-.1987.0283h-.1681l-.2497.8308.8569.0148c.5031-.0021.8193-.2374.9895-.5536l.5388-.9234h-.0086l.0568-.065c.3624-.7803 3.1196-5.51 3.1196-5.51zm-9.0444 10.912h-.3635l1.3455-4.4503h.4463l.1417-.4585.0137.5098c-.0167.3152.2313.5945.8825.5483h.7531l.2593-.8569h-.2835c-.1629 0-.2385-.0412-.229-.1294l-.0138-.5187h-1.3947v.0027c-.4509.0094-1.7975.0433-2.0701.1159-.3299.085-.6776.335-.6776.335l.1366-.4589h-1.3046l-.2719.9107-1.3635 4.5183h-.2646l-.2595.8508h2.5986l-.0872.2836h1.2805l.0849-.2836h.3593zm-1.0661-3.5461c-.209.0578-.5978.2332-.5978.2332l.3458-1.1374h1.0366l-.2501.8287s-.3202.0188-.5345.0755zm.0199 1.6249s-.3257.0409-.54.0893c-.211.064-.6068.2656-.6068.2656l.357-1.1836h1.042zm-.5808 1.9317h-1.0398l.3014-.9989h1.0366zm2.504-2.7604h1.4987l-.2153.6975h-1.5187l-.228.7626h1.3288l-1.0061 1.4167c-.0705.1041-.1337.1409-.2039.1702-.0704.0358-.1629.0777-.2699.0777h-.3687l-.2533.8352h.9643c.5012 0 .7972-.228 1.0158-.5273l.69-.9443.1481.9588c.0315.1796.1606.2848.2479.3256.0966.0484.1963.1315.3372.1439.1511.0064.2603.0115.3329.0115h.4738l.2845-.9346h-.1869c-.1073 0-.292-.018-.3235-.0516-.0314-.0409-.0314-.1038-.0484-.1995l-.1503-.961h-.6155l.27-.3213h1.5157l.2331-.7626h-1.4033l.2186-.6975h1.399l.2595-.8602h-4.1709zm-12.6586 2.9546.3498-1.1637h1.4377l.2627-.8656h-1.4391l.2197-.7163h1.4063l.2605-.8381h-3.5186l-.2552.8381h.7994l-.2132.7163h-.8016l-.2656.8803h.7991l-.4662 1.5397c-.063.2038.0295.2815.0882.3762.0599.0922.1207.1532.2573.1879.1409.0315.2374.0503.3686.0503h1.6209l.2887-.9589-.7184.0987c-.1388 0-.523-.0166-.481-.1449zm.1649-5.571-.3644.6585c-.078.1439-.1481.2331-.2113.2743-.0557.0347-.1659.0492-.3256.0492h-.1901l-.2541.8424h.6313c.3036 0 .5367-.1113.648-.167.1197-.064.1511-.0274.2436-.1167l.2132-.1847h1.9715l.2616-.8771h-1.4431l.252-.4789zm2.9105 5.5879c-.0336-.0484-.0094-.1336.0419-.3111l.5389-1.7835h1.9169c.2793-.004.481-.0073.6122-.0167.1409-.0148.2942-.065.4611-.1554.1724-.0946.2606-.1944.3351-.3089.0831-.1143.2164-.3644.331-.75l.6773-2.257-1.9892.0116s-.6125.0903-.8822.1901c-.2721.1113-.661.4221-.661.4221l.1797-.6187h-1.2288l-1.7204 5.7055c-.061.2216-.1019.3824-.1113.4789-.0032.104.1312.207.2183.2847.103.0777.2552.0651.4012.0777.1536.0116.3719.0189.6733.0189h.9443l.2899-.9788-.8454.0799c-.0903 0-.1557-.0484-.1828-.0893zm.9284-3.2992h2.0135l-.128.4012c-.0181.0094-.0611-.0199-.266.0043h-1.7434zm.4034-1.3455h2.0303l-.146.4832s-.9569-.0094-1.1102.0188c-.6744.1167-1.0683.477-1.0683.477zm1.5271 3.0901c-.0166.06-.043.0965-.0798.124-.0409.0263-.107.0357-.2057.0357h-.2869l.0169-.4886h-1.1933l-.0484 2.3886c-.0019.1723.0148.2721.1409.3519.1261.0998.5146.1124 1.0376.1124h.7478l.27-.894-.651.0357-.2165.0127c-.0295-.0127-.0578-.0242-.0892-.0557-.0275-.0271-.0737-.0105-.0662-.1828l.0051-.6123.6827-.0282c.3687 0 .5262-.1199.6607-.2342.1282-.1094.1702-.2353.2186-.4055l.1145-.5421h-.9381z" fill="#fefefe"/></svg>

<svg width="70" height="48" viewBox="0 0 70 48" fill="none" xmlns="http://www.w3.org/2000/svg">
<path d="M21.6555 10.0015H32.687C34.2269 10.0015 35.1847 11.2567 34.8255 12.8017L29.6895 34.8524C29.327 36.3921 27.7853 37.6483 26.2443 37.6483H15.2138C13.676 37.6483 12.7161 36.3921 13.0754 34.8524L18.2135 12.8017C18.5727 11.2567 20.1137 10.0015 21.6555 10.0015Z" fill="#3AB0E2"/>
<path d="M31.7686 10H44.4546C45.9942 10 45.2999 11.2552 44.9378 12.8002L39.8026 34.8509C39.4423 36.3905 39.5547 37.6468 38.0118 37.6468H25.3258C23.7829 37.6468 22.8281 36.3905 23.1906 34.8509L28.3255 12.8002C28.6901 11.2552 30.2278 10 31.7686 10Z" fill="#3AB0E2"/>
<path d="M43.9516 10H54.9832C56.5253 10 57.483 11.2552 57.1208 12.8002L51.9857 34.8509C51.6232 36.3905 50.0803 37.6468 48.5386 37.6468H37.5121C35.9692 37.6468 35.0123 36.3905 35.3737 34.8509L40.5096 12.8002C40.8689 11.2552 42.4088 10 43.9516 10Z" fill="#3AB0E2"/>
<path d="M24.5361 17.0666C23.4017 17.0781 23.0666 17.0666 22.9596 17.0413C22.9185 17.2368 22.1529 20.7681 22.1508 20.771C21.986 21.4854 21.866 21.9947 21.4587 22.3236C21.2274 22.5147 20.9575 22.607 20.6445 22.607C20.1414 22.607 19.8483 22.3572 19.7991 21.8834L19.7897 21.7207C19.7897 21.7207 19.943 20.7638 19.943 20.7584C19.943 20.7584 20.7464 17.5404 20.8903 17.115C20.8978 17.0908 20.8999 17.0781 20.9018 17.0666C19.338 17.0803 19.0608 17.0666 19.0417 17.0413C19.0312 17.076 18.9925 17.2755 18.9925 17.2755L18.1721 20.9025L18.1017 21.2101L17.9653 22.2163C17.9653 22.5147 18.0239 22.7583 18.1406 22.9643C18.5144 23.6174 19.5805 23.7153 20.1836 23.7153C20.9607 23.7153 21.6897 23.5502 22.1823 23.2488C23.0373 22.7436 23.261 21.9538 23.4605 21.252L23.553 20.892C23.553 20.892 24.3807 17.5498 24.5213 17.115C24.5267 17.0908 24.5288 17.0781 24.5361 17.0666ZM27.352 19.7628C27.1525 19.7628 26.7879 19.8112 26.4604 19.9717C26.3416 20.0328 26.2292 20.1032 26.1106 20.1734L26.2176 19.787L26.159 19.7219C25.4645 19.8626 25.309 19.8814 24.6675 19.9717L24.6137 20.0075C24.5392 20.6251 24.4731 21.0895 24.1969 22.3035C24.0918 22.7509 23.9826 23.2027 23.8732 23.649L23.9028 23.7057C24.5602 23.671 24.7597 23.671 25.3311 23.6805L25.3773 23.6302C25.4499 23.2583 25.4594 23.1712 25.6201 22.418C25.6957 22.061 25.8533 21.2764 25.931 20.997C26.0738 20.9308 26.2146 20.8658 26.3491 20.8658C26.6693 20.8658 26.6303 21.1451 26.618 21.2565C26.6043 21.4433 26.4876 22.0537 26.3679 22.5778L26.2881 22.916C26.2324 23.1658 26.1714 23.4086 26.1157 23.6563L26.1399 23.7057C26.7879 23.671 26.9855 23.671 27.5389 23.6805L27.604 23.6302C27.704 23.0494 27.7333 22.894 27.9108 22.0483L28 21.6598C28.1735 20.8994 28.2606 20.5138 28.1294 20.1997C27.9906 19.8478 27.6578 19.7628 27.352 19.7628ZM30.4978 20.5589C30.1533 20.6251 29.9337 20.6692 29.7153 20.6977C29.4989 20.7324 29.2878 20.7638 28.9549 20.8101L28.9286 20.834L28.9044 20.8531C28.8697 21.101 28.8455 21.3153 28.7995 21.5673C28.7605 21.8278 28.7005 22.1239 28.6029 22.5492C28.5274 22.8749 28.4884 22.9883 28.4454 23.1029C28.4034 23.2174 28.3572 23.3287 28.2722 23.649L28.2921 23.6786L28.3088 23.7057C28.6199 23.6909 28.8234 23.6804 29.0326 23.6786C29.2415 23.671 29.458 23.6786 29.793 23.6804L29.8223 23.6565L29.8538 23.6302C29.9022 23.3414 29.9095 23.2637 29.939 23.1228C29.9683 22.9717 30.0189 22.7625 30.1428 22.2037C30.2015 21.9413 30.2668 21.6797 30.3276 21.4118C30.3908 21.1451 30.4569 20.8824 30.5198 20.62L30.5104 20.5883L30.4978 20.5589ZM30.5051 19.4855C30.1921 19.3008 29.6428 19.3594 29.2731 19.6146C28.9044 19.8646 28.8625 20.2196 29.1744 20.4067C29.482 20.5863 30.0335 20.5328 30.4 20.2755C30.7678 20.02 30.8138 19.6683 30.5051 19.4855ZM32.3979 23.7636C33.0312 23.7636 33.6802 23.5891 34.1688 23.0712C34.5447 22.6512 34.7171 22.0263 34.7768 21.769C34.9712 20.9161 34.8198 20.5179 34.6297 20.2754C34.3409 19.9056 33.8306 19.7871 33.3011 19.7871C32.9828 19.7871 32.2245 19.8185 31.6321 20.3646C31.2068 20.7585 31.0102 21.2931 30.8916 21.8056C30.772 22.3278 30.6343 23.2678 31.4988 23.6176C31.7655 23.7321 32.15 23.7636 32.3979 23.7636ZM32.3485 21.8446C32.4945 21.1987 32.6668 20.6566 33.1067 20.6566C33.4514 20.6566 33.4764 21.06 33.3232 21.708C33.2957 21.8518 33.1699 22.3866 32.9997 22.6144C32.8808 22.7824 32.7402 22.8843 32.5848 22.8843C32.5386 22.8843 32.2635 22.8843 32.2592 22.4759C32.257 22.2742 32.2982 22.0683 32.3485 21.8446ZM36.3597 23.6805L36.4092 23.6303C36.4793 23.2584 36.4909 23.171 36.6463 22.4181C36.724 22.061 36.8848 21.2764 36.9604 20.9971C37.1034 20.9307 37.2419 20.8656 37.3806 20.8656C37.6987 20.8656 37.66 21.145 37.6474 21.2563C37.6358 21.4434 37.5191 22.0535 37.3973 22.5776L37.3218 22.9158C37.2639 23.1659 37.201 23.4084 37.1454 23.6563L37.1696 23.7058C37.8197 23.6711 38.0098 23.6711 38.5664 23.6805L38.6336 23.6303C38.7313 23.0492 38.7576 22.8938 38.9404 22.0484L39.0276 21.6596C39.2018 20.8992 39.29 20.5139 39.1609 20.1998C39.0182 19.8479 38.6831 19.7629 38.3817 19.7629C38.1819 19.7629 37.8154 19.811 37.4898 19.9718C37.3734 20.0328 37.2567 20.103 37.1421 20.1735L37.2419 19.7871L37.1884 19.7217C36.4941 19.8626 36.3355 19.8815 35.6947 19.9718L35.6455 20.0076C35.5678 20.6252 35.5046 21.0893 35.2285 22.3036C35.1234 22.751 35.0142 23.2027 34.905 23.6491L34.9343 23.7058C35.5928 23.6711 35.7894 23.6711 36.3597 23.6805ZM41.1366 23.7057C41.1774 23.5062 41.4202 22.3236 41.4224 22.3236C41.4224 22.3236 41.6292 21.4559 41.6418 21.4245C41.6418 21.4245 41.7069 21.3341 41.7719 21.2984H41.8677C42.7709 21.2984 43.7907 21.2984 44.5901 20.7103C45.1341 20.307 45.506 19.7114 45.6719 18.9876C45.7149 18.8101 45.7466 18.599 45.7466 18.3879C45.7466 18.1107 45.6909 17.8365 45.5301 17.6222C45.1225 17.0518 44.3108 17.0414 43.3737 17.0371C43.3707 17.0371 42.9117 17.0414 42.9117 17.0414C41.7123 17.0562 41.2312 17.0518 41.0336 17.0276C41.0169 17.115 40.9855 17.2705 40.9855 17.2705C40.9855 17.2705 40.5558 19.2618 40.5558 19.265C40.5558 19.265 39.5276 23.4989 39.4792 23.6984C40.5265 23.6858 40.9559 23.6858 41.1366 23.7057ZM41.9327 20.1682C41.9327 20.1682 42.3896 18.1809 42.3874 18.1884L42.4022 18.0865L42.4087 18.0088L42.5912 18.0276C42.5912 18.0276 43.5334 18.1086 43.5555 18.1107C43.9273 18.2546 44.0806 18.6254 43.9736 19.1094C43.876 19.5517 43.5891 19.9235 43.2204 20.1032C42.9169 20.2553 42.545 20.268 42.1618 20.268H41.9139L41.9327 20.1682ZM44.7771 21.8814C44.6564 22.396 44.5176 23.336 45.3778 23.6711C45.6521 23.7878 45.8978 23.8225 46.1476 23.8098C46.4114 23.7956 46.6558 23.6633 46.8822 23.4729C46.8618 23.5512 46.8413 23.6294 46.8209 23.7079L46.8599 23.7582C47.4786 23.7321 47.6706 23.7321 48.3409 23.7372L48.4017 23.691C48.4996 23.1156 48.5918 22.5568 48.8462 21.456C48.9701 20.9287 49.0938 20.4065 49.221 19.8814L49.2011 19.8236C48.509 19.9519 48.324 19.9793 47.6582 20.0737L47.6077 20.1148C47.6009 20.1683 47.594 20.2197 47.5875 20.271C47.484 20.1038 47.3339 19.961 47.1024 19.872C46.8064 19.7556 46.1111 19.9056 45.5133 20.4498C45.0933 20.8384 44.8917 21.3708 44.7771 21.8814ZM46.2307 21.9128C46.3789 21.2785 46.5491 20.7418 46.99 20.7418C47.2689 20.7418 47.4157 20.9992 47.3858 21.438C47.3622 21.5474 47.3366 21.6628 47.3062 21.7932C47.2621 21.9817 47.2143 22.1685 47.1678 22.3557C47.1204 22.4837 47.0653 22.6044 47.0048 22.6848C46.8914 22.8456 46.6214 22.9454 46.466 22.9454C46.4219 22.9454 46.1498 22.9454 46.1404 22.5442C46.1382 22.3444 46.1793 22.1387 46.2307 21.9128ZM53.8215 19.8185L53.768 19.7574C53.0831 19.8962 52.9592 19.9182 52.33 20.0032L52.2837 20.0494C52.2816 20.057 52.2797 20.0685 52.2765 20.079L52.2743 20.0685C51.8059 21.1492 51.8196 20.9161 51.4383 21.7668C51.4362 21.7281 51.4362 21.7039 51.434 21.6627L51.3386 19.8185L51.2786 19.7574C50.5612 19.8962 50.5443 19.9182 49.8818 20.0032L49.8301 20.0494C49.8229 20.0715 49.8229 20.0957 49.8186 20.122L49.8229 20.1314C49.9057 20.5547 49.8858 20.4603 49.9689 21.1282C50.0076 21.456 50.0592 21.7856 50.0979 22.1094C50.1633 22.6512 50.1999 22.9179 50.2797 23.7447C49.8323 24.4831 49.7263 24.7625 49.2956 25.4105L49.2986 25.4169L48.9952 25.8966C48.9606 25.9472 48.9291 25.9818 48.885 25.9966C48.8366 26.0206 48.7737 26.0249 48.6863 26.0249H48.5182L48.2685 26.8557L49.1254 26.8705C49.6285 26.8684 49.9447 26.6331 50.1149 26.3169L50.6537 25.3935H50.6451L50.7019 25.3285C51.0643 24.5482 53.8215 19.8185 53.8215 19.8185ZM44.7771 30.7305H44.4136L45.7591 26.2802H46.2054L46.3471 25.8217L46.3608 26.3315C46.3441 26.6467 46.5921 26.926 47.2433 26.8798H47.9964L48.2557 26.0229H47.9722C47.8093 26.0229 47.7337 25.9817 47.7432 25.8935L47.7294 25.3748H46.3347V25.3775C45.8838 25.3869 44.5372 25.4208 44.2646 25.4934C43.9347 25.5784 43.587 25.8284 43.587 25.8284L43.7236 25.3695H42.419L42.1471 26.2802L40.7836 30.7985H40.519L40.2595 31.6493H42.8581L42.7709 31.9329H44.0514L44.1363 31.6493H44.4956L44.7771 30.7305ZM43.711 27.1844C43.502 27.2422 43.1132 27.4176 43.1132 27.4176L43.459 26.2802H44.4956L44.2455 27.1089C44.2455 27.1089 43.9253 27.1277 43.711 27.1844ZM43.7309 28.8093C43.7309 28.8093 43.4052 28.8502 43.1909 28.8986C42.9799 28.9626 42.5841 29.1642 42.5841 29.1642L42.9411 27.9806H43.9831L43.7309 28.8093ZM43.1501 30.741H42.1103L42.4117 29.7421H43.4483L43.1501 30.741ZM45.6541 27.9806H47.1528L46.9375 28.6781H45.4188L45.1908 29.4407H46.5196L45.5135 30.8574C45.443 30.9615 45.3798 30.9983 45.3096 31.0276C45.2392 31.0634 45.1467 31.1053 45.0397 31.1053H44.671L44.4177 31.9405H45.382C45.8832 31.9405 46.1792 31.7125 46.3978 31.4132L47.0878 30.4689L47.2359 31.4277C47.2674 31.6073 47.3965 31.7125 47.4838 31.7533C47.5804 31.8017 47.6801 31.8848 47.821 31.8972C47.9721 31.9036 48.0813 31.9087 48.1539 31.9087H48.6277L48.9122 30.9741H48.7253C48.618 30.9741 48.4333 30.9561 48.4018 30.9225C48.3704 30.8816 48.3704 30.8187 48.3534 30.723L48.2031 29.762H47.5876L47.8576 29.4407H49.3733L49.6064 28.6781H48.2031L48.4217 27.9806H49.8207L50.0802 27.1204H45.9093L45.6541 27.9806ZM32.9955 30.9352L33.3453 29.7715H34.783L35.0457 28.9059H33.6066L33.8263 28.1896H35.2326L35.4931 27.3515H31.9745L31.7193 28.1896H32.5187L32.3055 28.9059H31.5039L31.2383 29.7862H32.0374L31.5712 31.3259C31.5082 31.5297 31.6007 31.6074 31.6594 31.7021C31.7193 31.7943 31.7801 31.8553 31.9167 31.89C32.0576 31.9215 32.1541 31.9403 32.2853 31.9403H33.9062L34.1949 30.9814L33.4765 31.0801C33.3377 31.0801 32.9535 31.0635 32.9955 30.9352ZM33.1604 25.3642L32.796 26.0227C32.718 26.1666 32.6479 26.2558 32.5847 26.297C32.529 26.3317 32.4188 26.3462 32.2591 26.3462H32.069L31.8149 27.1886H32.4462C32.7498 27.1886 32.9829 27.0773 33.0942 27.0216C33.2139 26.9576 33.2453 26.9942 33.3378 26.9049L33.551 26.7202H35.5225L35.7841 25.8431H34.341L34.593 25.3642H33.1604ZM36.0709 30.9521C36.0373 30.9037 36.0615 30.8185 36.1128 30.641L36.6517 28.8575H38.5686C38.8479 28.8535 39.0496 28.8502 39.1808 28.8408C39.3217 28.826 39.475 28.7758 39.6419 28.6854C39.8143 28.5908 39.9025 28.491 39.977 28.3765C40.0601 28.2622 40.1934 28.0121 40.308 27.6265L40.9853 25.3695L38.9961 25.3811C38.9961 25.3811 38.3836 25.4714 38.1139 25.5712C37.8418 25.6825 37.4529 25.9933 37.4529 25.9933L37.6326 25.3746H36.4038L34.6834 31.0801C34.6224 31.3017 34.5815 31.4625 34.5721 31.559C34.5689 31.663 34.7033 31.766 34.7904 31.8437C34.8934 31.9214 35.0456 31.9088 35.1916 31.9214C35.3452 31.933 35.5635 31.9403 35.8649 31.9403H36.8092L37.0991 30.9615L36.2537 31.0414C36.1634 31.0414 36.098 30.993 36.0709 30.9521ZM36.9993 27.6529H39.0128L38.8848 28.0541C38.8667 28.0635 38.8237 28.0342 38.6188 28.0584H36.8754L36.9993 27.6529ZM37.4027 26.3074H39.433L39.287 26.7906C39.287 26.7906 38.3301 26.7812 38.1768 26.8094C37.5024 26.9261 37.1085 27.2864 37.1085 27.2864L37.4027 26.3074ZM38.9298 29.3975C38.9132 29.4575 38.8868 29.494 38.85 29.5215C38.8091 29.5478 38.743 29.5572 38.6443 29.5572H38.3574L38.3743 29.0686H37.181L37.1326 31.4572C37.1307 31.6295 37.1474 31.7293 37.2735 31.8091C37.3996 31.9089 37.7881 31.9215 38.3111 31.9215H39.0589L39.3289 31.0275L38.6779 31.0632L38.4614 31.0759C38.4319 31.0632 38.4036 31.0517 38.3722 31.0202C38.3447 30.9931 38.2985 31.0097 38.306 30.8374L38.3111 30.2251L38.9938 30.1969C39.3625 30.1969 39.52 30.077 39.6545 29.9627C39.7827 29.8533 39.8247 29.7274 39.8731 29.5572L39.9876 29.0151H39.0495L38.9298 29.3975Z" fill="#FEFEFE"/>
</svg>
